src/lib/packages/icons/src/assets/filled/bookmarks-settings.svg

<svg width="24" height="24" viewBox="0 0 24 24" fill="none" xmlns="http://www.w3.org/2000/svg">
<path d="M19.9971 4.56995V18L19.99 17.986V18L17.6411 16.656C17.5471 16.603 17.49 16.503 17.49 16.396C17.49 16.396 17.49 8.50495 17.49 8.47095C17.449 5.98395 15.9439 4.501 13.4299 4.5H8.21704C8.04304 4.5 7.9911 4.34805 8.0061 4.17505C8.1311 2.73105 8.98506 2 10.5601 2H17.4199H17.427C19.137 2 19.9971 2.85995 19.9971 4.56995ZM10.02 11.5H10.01C9.45801 11.5 9.01489 11.948 9.01489 12.5C9.01489 13.052 9.46802 13.5 10.02 13.5C10.573 13.5 11.02 13.052 11.02 12.5C11.02 11.948 10.572 11.5 10.02 11.5ZM16 8.57104V22L10 18.572L4 22V8.57104C4 6.85705 4.85704 6 6.57104 6H13.428C15.143 6 16 6.85705 16 8.57104ZM12.7839 12.502C12.7829 12.084 13.012 11.698 13.385 11.488L13.501 11.423L12.699 10.077L12.584 10.141C12.21 10.35 11.75 10.35 11.377 10.14C11.006 9.93101 10.7781 9.54598 10.7781 9.13098C10.7781 9.05898 10.7181 9 10.6431 9H9.30908C9.23508 9 9.17407 9.05898 9.17407 9.13098C9.17407 9.54698 8.94595 9.93101 8.57495 10.14C8.20195 10.35 7.74192 10.351 7.36792 10.141C7.30492 10.105 7.22301 10.126 7.18701 10.188L6.51807 11.311C6.48107 11.372 6.50292 11.4511 6.56592 11.4871L6.56812 11.488C6.93912 11.697 7.16697 12.081 7.16797 12.496C7.16897 12.914 6.94012 13.301 6.56812 13.511L6.56592 13.512C6.50292 13.548 6.48107 13.627 6.51807 13.688L7.18701 14.8101C7.22401 14.8721 7.3049 14.8931 7.3689 14.8571C7.7419 14.6481 8.20195 14.648 8.57495 14.858C8.94595 15.067 9.1741 15.452 9.1731 15.868C9.1731 15.94 9.23311 15.999 9.30811 15.999H10.644C10.718 15.999 10.7791 15.941 10.7791 15.869C10.7791 15.453 11.0069 15.069 11.3779 14.86C11.7509 14.65 12.211 14.649 12.585 14.859C12.648 14.895 12.7291 14.874 12.7661 14.812L13.4351 13.689C13.4721 13.628 13.45 13.5489 13.387 13.5129L13.386 13.512C13.013 13.303 12.7839 12.918 12.7839 12.502Z" fill="currentColor"/>
</svg>

<svg xmlns="http://www.w3.org/2000/svg" width="24" height="24" fill="none"><path fill="currentColor" d="M19.997 4.57V18l-.007-.014V18l-2.349-1.344a.298.298 0 0 1-.151-.26V8.471c-.041-2.487-1.546-3.97-4.06-3.971H8.217c-.174 0-.226-.152-.21-.325C8.13 2.731 8.984 2 10.56 2h6.867c1.71 0 2.57.86 2.57 2.57ZM10.02 11.5h-.01a.996.996 0 0 0-.995 1c0 .552.453 1 1.005 1a1 1 0 1 0 0-2ZM16 8.571V22l-6-3.428L4 22V8.571C4 6.857 4.857 6 6.571 6h6.857C15.143 6 16 6.857 16 8.571Zm-3.216 3.931a1.163 1.163 0 0 1 .601-1.014l.116-.065-.802-1.346-.115.064a1.238 1.238 0 0 1-1.207-.001 1.161 1.161 0 0 1-.599-1.009.133.133 0 0 0-.135-.131H9.31a.134.134 0 0 0-.135.131c0 .416-.228.8-.6 1.009-.372.21-.832.211-1.206.001a.134.134 0 0 0-.181.047l-.669 1.123a.127.127 0 0 0 .048.176l.002.001c.371.209.599.593.6 1.008.001.418-.228.805-.6 1.015l-.002.001a.127.127 0 0 0-.048.176l.669 1.122a.135.135 0 0 0 .182.047 1.236 1.236 0 0 1 1.206.001c.371.209.6.594.598 1.01 0 .072.06.131.135.131h1.336a.133.133 0 0 0 .135-.13c0-.416.228-.8.599-1.009.373-.21.833-.211 1.207-.001a.134.134 0 0 0 .181-.047l.67-1.123a.127.127 0 0 0-.049-.176l-.001-.001a1.16 1.16 0 0 1-.602-1.01Z"/></svg>
